X:1
T:Title
%%score ( 1 2 ) 3
L:1/8
Q:1/4=90
M:4/4
K:Bb
V:1 treble nm="Grand Piano, Soprano"
V:2 treble 
V:3 bass nm="Choir Pad, In The Promised Land"
V:1
 [DF]2 [DB][DB] [DB]2 [DF]2 | [EG][EG] [DF]2 [DF]2 [DB][DB] | [FA]2 [Ec]2 [DB]4 | %3
w: By~Haldor~Lillenas * * * *|||
 [DF]2 [DB][DB] [DB]2 [DF]2 | [EG][EG] [DF]2 [Fd]2 [Fc]<[FA] | [FA]2 [=EG]2 F2- [_EF]2 | %6
w: |||
 F>F [DB]>[DB] [DB]>[DB] [EB]2 | [EA]>[EG] [DF]4 [B,D]2 | [B,D]>[CE] [DF]>[DF] [DF]>[DF] [EG]2 | %9
w: |||
 [DF]2 C6 | F>F [DB]>[DB] [DB]>[DB] [EB]2 | [EA]>[EG] [DF]4 [B,D]2 | %12
w: |||
 [A,C]>[B,D] [CE]>[DF] [EG]>[EA] [Fd]2 | [Ec]2 [DB]6- | [DB]2 z2 z4 |] %15
w: |||
V:2
 x8 | x8 | x8 | x8 | x8 | z4 C2 z2 | x8 | x8 | x8 | x8 | x8 | x8 | x8 | x8 | x8 |] %15
V:3
 [B,,B,]2 [B,,F,][B,,F,] [B,,F,]2 [B,,B,]2 | [E,B,][E,B,] [B,,B,]2 [B,,B,]2 [B,,B,][B,,B,] | %2
 [F,C]2 [F,A,]2 [B,,F,]4 | [B,,B,]2 [B,,F,][B,,F,] [B,,F,]2 [B,,B,]2 | %4
 [E,B,][E,B,] [B,,B,]2 B,2 [F,A,]<[F,C] | [C,C]2 [C,B,]2 [F,A,]4 | %6
 F,>F, [B,,F,]>[B,,F,] [B,,F,]>[B,,F,] [E,G,]2 | [E,A,]>[E,B,] [B,,B,]4 [B,,F,]2 | %8
 [B,,F,]>[B,,F,] [B,,B,]>[B,,B,] [B,,B,]>[B,,B,] [E,B,]2 | [B,,B,]2 [F,A,]6 | %10
 F,>F, [B,,F,]>[B,,F,] [B,,F,]>[B,,F,] [E,G,]2 | [E,A,]>[E,B,] [B,,B,]4 [B,,F,]2 | %12
 F,>F, [F,A,]>[F,B,] [F,A,]>[F,C] [F,B,]2 | [F,A,]2 [B,,F,B,]6- | [B,,F,B,]2 z2 z4 |] %15

